svg/icons/src/icon-savings.svg

<?xml version="1.0" encoding="UTF-8"?>
<svg width="32px" height="32px" viewBox="0 0 32 32" version="1.1" xmlns="http://www.w3.org/2000/svg" xmlns:xlink="http://www.w3.org/1999/xlink">
    <!-- Generator: Sketch 52.5 (67469) - http://www.bohemiancoding.com/sketch -->
    <title>icon-savings</title>
    <desc>Created with Sketch.</desc>
    <g id="icon-savings" stroke="none" stroke-width="1" fill="none" fill-rule="evenodd">
        <path d="M31.72,12.4419 C31.7464953,12.1034378 31.6374436,11.7683139 31.4168377,11.5102602 C31.1962317,11.2522064 30.8821447,11.0923639 30.54368,11.0659 C29.8385549,11.0141842 29.2224441,11.5379639 29.16,12.24222 C29.1542083,12.3311324 29.0848188,12.4027376 28.9961323,12.4113202 C28.9074458,12.4199028 28.8256134,12.3629319 28.80288,12.27678 C28.1828462,10.1301679 26.8957848,8.23656017 25.128,6.87006003 C21.8882527,4.37661545 17.7353025,3.39103537 13.72064,4.16286003 C13.6003125,4.18292633 13.4789591,4.13339431 13.40704,4.03486003 C12.1617161,2.3822751 10.0426385,1.64390823 8.04,2.16478003 C7.59022587,2.28208276 7.23939165,2.63399452 7.12346877,3.08412627 C7.00754589,3.53425801 7.14475557,4.0118562 7.48192,4.33182003 C7.95384863,4.77493213 8.30609511,5.33016065 8.50592,5.94590003 C8.54964468,6.08206744 8.49731332,6.23068852 8.37792,6.30942003 C6.1138746,7.76600558 4.4842807,10.0247581 3.816,12.63262 C3.7820727,12.7768953 3.65317022,12.8787441 3.50496,12.87838 L2.92,12.87838 C1.85961328,12.87838 1,13.7379933 1,14.79838 L1,17.35838 C1,18.4187667 1.85961328,19.27838 2.92,19.27838 L4.50848,19.27838 C4.62494087,19.2785452 4.73219358,19.3417215 4.7888,19.4435 C5.74866808,21.12385 7.11922232,22.5331603 8.77216,23.5395 C8.89286824,23.6154737 8.9487246,23.7621619 8.90912,23.89918 L7.784,27.79294 C7.5384447,28.6419058 8.02710937,29.5292933 8.87584,29.77566 C9.02113568,29.8170962 9.1714714,29.8382036 9.32256,29.83838 C10.033529,29.8379539 10.6590796,29.3687909 10.85856,28.68638 L11.84032,25.29566 C11.8903966,25.1264743 12.0675414,25.0293304 12.23712,25.07806 C14.9286851,25.8788232 17.794702,25.8819355 20.488,25.08702 C20.5694388,25.0635515 20.656852,25.073213 20.7312,25.1139 C20.8063046,25.1544389 20.8617362,25.2237285 20.8848,25.3059 L21.864,28.68638 C22.0634804,29.3687909 22.689031,29.8379539 23.4,29.83838 C23.5510817,29.8381053 23.7014039,29.8169999 23.84672,29.77566 C24.6954506,29.5292933 25.1841153,28.6419058 24.93856,27.79294 L23.81216,23.90302 C23.7730051,23.7660208 23.8287601,23.6195987 23.94912,23.54334 C26.7095393,21.9179798 28.5935326,19.1382791 29.08064,15.97214 C29.0959598,15.8561564 29.1735916,15.7578884 29.28288,15.71614 C30.6611724,15.1893013 31.6108596,13.9134085 31.72,12.4419 Z M22.888,10.25438 C22.7352353,10.4580663 22.5078134,10.5927246 22.2557645,10.6287315 C22.0037156,10.6647385 21.7476863,10.5991447 21.544,10.44638 C19.8891436,9.20836083 17.8462109,8.6027448 15.784,8.73886003 C15.2538066,8.77420625 14.7953462,8.37305339 14.76,7.84286003 C14.7246538,7.31266667 15.1258066,6.85420625 15.656,6.81886003 C18.1772124,6.64509195 20.6765936,7.38581766 22.696,8.90526003 C22.9011735,9.05811381 23.0368427,9.28654489 23.0728911,9.53984501 C23.1089395,9.79314513 23.0423844,10.0503558 22.888,10.25438 Z M8.68,14.15838 C7.97307552,14.15838 7.4,13.5853045 7.4,12.87838 C7.4,12.1714555 7.97307552,11.59838 8.68,11.59838 C9.38692448,11.59838 9.96,12.1714555 9.96,12.87838 C9.96,13.5853045 9.38692448,14.15838 8.68,14.15838 Z" id="Shape" fill="#2333FF" fill-rule="nonzero"></path>
    </g>
</svg>

<svg width="32" height="32" xmlns="http://www.w3.org/2000/svg"><path d="M31.72 12.442a1.28 1.28 0 0 0-1.176-1.376 1.294 1.294 0 0 0-1.384 1.176.182.182 0 0 1-.357.035 10.525 10.525 0 0 0-3.675-5.407 14.282 14.282 0 0 0-11.407-2.707.323.323 0 0 1-.314-.128 5.11 5.11 0 0 0-5.367-1.87 1.28 1.28 0 0 0-.558 2.167 3.84 3.84 0 0 1 1.024 1.614.319.319 0 0 1-.128.363 10.668 10.668 0 0 0-4.562 6.324.319.319 0 0 1-.311.245H2.92c-1.06 0-1.92.86-1.92 1.92v2.56c0 1.06.86 1.92 1.92 1.92h1.588c.117 0 .224.064.28.166.96 1.68 2.331 3.09 3.984 4.096a.32.32 0 0 1 .137.36l-1.125 3.893a1.601 1.601 0 0 0 3.075.893l.981-3.39a.321.321 0 0 1 .397-.218c2.692.8 5.558.804 8.251.009a.321.321 0 0 1 .397.219l.979 3.38a1.601 1.601 0 0 0 3.075-.893l-1.127-3.89a.321.321 0 0 1 .137-.36 10.669 10.669 0 0 0 5.132-7.57.319.319 0 0 1 .202-.257 3.807 3.807 0 0 0 2.437-3.274zm-8.832-2.188a.96.96 0 0 1-1.344.192 8.663 8.663 0 0 0-5.76-1.707.962.962 0 1 1-.128-1.92c2.521-.174 5.02.567 7.04 2.086a.96.96 0 0 1 .192 1.35zM8.68 14.158a1.28 1.28 0 1 1 0-2.56 1.28 1.28 0 0 1 0 2.56z" fill="#2333FF"/></svg>
